X:1
T:28
T:Hugo Distler
T:Vs. 1-3: Albrecht of Prussia (?) 1490 – 1568 Vs. 4:  Michael Praetorius, 1709
T:28.  May God's Will Ever Come to Pass Was mein Gott will, das g'scheh allzeit Feast of the Reformation
T:Bärenreiter
T:Bärenreiter
T:Bärenreiter
T:Bärenreiter
T:Bärenreiter
T:Bärenreiter
C:Hugo Distler
Z:Vs. 1-3: Albrecht of Prussia (?) 1490 – 1568
Z:Vs. 4:  Michael Praetorius, 1709
Z:Bärenreiter
%%score [ 1 2 3 ]
L:1/8
Q:1/4=120
M:4/4
K:Gmin
V:1 treble nm="Sop."
V:2 treble nm="Alto"
V:3 bass nm="Bar."
V:1
 z2 | z2 A2 c2 d2 | c2 (f3 =e c2) | d2 d2 c4 | z2 d2 c2 B2 | (_e6 dc | de f3 e d2) | e2 (c3 B c2) | %8
w: |1. May God's will|ev- er _ _|come to pass,|His will is|best _ _|_ _ _ _ _|and right- * *|
w: |2. God is my|com- fort, _ _|con- fi- dence,|my life, my|hope, _ _|_ _ _ _ _|pro- tec- * *|
w: |3. I'll glad- ly|leave this _ _|earth- ly life,|when God's will|has _ _|_ _ _ _ _|or- dained _ _|
w: |4. A prayer, O|Lord, I _ _|now at- tempt,|and You will|not _ _|_ _ _ _ _|re- fuse _ _|
 d8 || z2 | z2 A2 c2 d2 | c2 (f3 =e c2) | d2 d2 c4 | z2 d2 c2 B2 | (_e6 dc | de f3 e d2) | %16
w: eous;||to those whose|faith is _ _|fixed and fast|He of- fers|aid _ _|_ _ _ _ _|
w: tion;||what- e'er He|wills in _ _|con- se- quence|should be my|will _ _|_ _ _ _ _|
w: it,||re- pair to|God, leave _ _|earth- ly strife|and know that|He _ _|_ _ _ _ _|
w: me:||if e- vil|spi- rits _ _|me should tempt,|Lord, let not|them _ _|_ _ _ _ _|
 e2 (c3 B c2) | d8 |[M:3/4] G2 G2 G2 | A4 G2 | F2 =E4 |[M:4/4] F4 z4 | z4 z2 F2 | G2 A2 B2 A2 | %24
w: that's time- * *|less.|He helps us|when we|call on|Him,|and|lov- ing- ly cor-|
w: most sure- * *|ly.|His word is|true, for|ev- 'ry|hair|up-|on my head He|
w: has willed _ _|it.|My soul com-|mit as|He sees|fit|when|my life's breath has|
w: con- fuse _ _|me,|but help, di-|rect, de-|fend me,|Lord,|that|I may praise your|
 G4"^()" A4 | z2 A2 c2 d2 | c2 (f3 =e c2) | d2 d2 c4 | z2 d2 c2 B2 | (_e6 dc | de f3 e d2) | %31
w: rects us.|But trust in|Him and _ _|rest in Him,|He nev- er|will _ _|_ _ _ _ _|
w: num- bers.|He guards and|keeps and _ _|nev- er sleeps.|His watch- ful|eye _ _|_ _ _ _ _|
w: fal- tered.|O gra- cious|Lord, sin, _ _|hell, and death|for me You|have _ _|_ _ _ _ _|
w: name, then.|Who asks, to|him it _ _|shall be giv'n.|In joy I|say _ _|_ _ _ _ _|
 e2 (c3 B c2) | d8 |] %33
w: neg- lect _ _|us.|
w: ne'er slum- * *|bers.|
w: now con- * *|quered.|
w: now: A- * *|men.|
V:2
 D2 | F2 G2 F2 (B2- | BA F2) G2 G2 | !breath!A2 F2 _E2 D2 | (G2 F3 F GA | B3 A G2 A2- | %6
w: 1. May|God's will ev- er|_ _ _ come to|pass, His will is|best _ _ _ _|_ _ _ _|
w: 2. God|is my com- fort,|_ _ _ con- fi-|dence, my life, my|hope, _ _ _ _|_ _ _ _|
w: 3. I'll|glad- ly leave this|_ _ _ earth- ly|life, when God's will|has _ _ _ _|_ _ _ _|
w: 4. A|prayer, O Lord, I|_ _ _ now at-|tempt, and You will|not _ _ _ _|_ _ _ _|
 AG F2) D2 (G2- | G2 AG A4) | =B8 || D2 | F2 G2 F2 (B2- | BA F2) G2 G2 | !breath!A2 F2 _E2 D2 | %13
w: * * * and right-||eous;|to|those whose faith is|_ _ _ fixed and|fast He of- fers|
w: * * * pro- tec-||tion;|what-|e'er He wills in|_ _ _ con- se-|quence should be my|
w: * * * or- dained|_ _ _ _|it,|re-|pair to God, leave|_ _ _ earth- ly|strife and know that|
w: * * * re- fuse|_ _ _ _|me:|if|e- vil spi- rits|_ _ _ me should|tempt, Lord, let not|
 (G2 F3 F GA | B3 A G2 A2- | AG F2) D2 (G2- | G2 AG A4) | =B8 |[M:3/4] G4 G2 | F2 D4 | D2 D2 C2 | %21
w: aid _ _ _ _|_ _ _ _|* * * that's time-||less.|He helps|us when|we call on|
w: will _ _ _ _|_ _ _ _|* * * most sure-||ly.|His word|is true,|for ev- 'ry|
w: He _ _ _ _|_ _ _ _|* * * has willed|_ _ _ _|it.|My soul|com- mit|as He sees|
w: them _ _ _ _|_ _ _ _|* * * con- fuse|_ _ _ _|me,|but help,|di- rect,|de- fend me,|
[M:4/4] D4 z2 C2 | (D2 =E2) F4 | =E2 D2 (G3 F | =ED E2)"^()" !breath!^F2 D2 | =F2 G2 F2 (B2- | %26
w: Him, and|lov- * ing-|ly cor- rects _|_ _ _ us. But|trust in Him and|
w: hair up-|on _ my|head He num- *|* * * bers. He|guards and keeps and|
w: fit when|my _ life's|breath has fal- *|* * * tered. O|gra- cious Lord, sin,|
w: Lord, that|I _ may|praise your name, _|_ _ _ then. Who|asks, to him it|
 BA F2) G2 G2 | !breath!A2 F2 _E2 D2 | (G2 F3 F GA | B3 A G2 A2- | AG F2) D2 (G2- | G2 AG A4) | %32
w: _ _ _ rest in|Him, He nev- er|will _ _ _ _|_ _ _ _|* * * neg- lect|_ _ _ _|
w: _ _ _ nev- er|sleeps. His watch- ful|eye _ _ _ _|_ _ _ _|* * * ne'er slum-||
w: _ _ _ hell, and|death for me You|have _ _ _ _|_ _ _ _|* * * now con-||
w: _ _ _ shall be|giv'n. In joy I|say _ _ _ _|_ _ _ _|* * * now: A-||
 =B8 |] %33
w: us.|
w: bers.|
w: quered.|
w: men.|
V:3
 z2 | z8 | z2 D,2 F,2 G,2 | F,2 B,2 B,2 A,2 | B,4 z2 B,2 | A,2 G,2 C4 | B,2 (A,4 G,2- | %7
w: ||1. May God's will|ev- er come to|pass, His|will is best|and right- *|
w: ||2. God is my|com- fort, con- fi-|dence, my|life, my hope,|pro- tec- *|
w: ||3. I'll glad- ly|leave this earth- ly|life, when|God's will has|or- dained _|
w: ||4. A prayer, O|Lord, I now at-|tempt, and|You will not|re- fuse _|
 G,2 F,E, F,4) | G,8 || z2 | z8 | z2 D,2 F,2 G,2 | F,2 B,2 B,2 A,2 | B,4 z2 B,2 | A,2 G,2 C4 | %15
w: |eous;|||to those whose|faith is fixed and|fast He|of- fers aid|
w: |tion;|||what- e'er He|wills in con- se-|quence should|be my will|
w: _ _ _ _|it,|||re- pair to|God, leave earth- ly|strife and|know that He|
w: _ _ _ _|me:|||if e- vil|spi- rits me should|tempt, Lord,|let not them|
 B,2 (A,4 G,2- | G,2 F,E, F,4) | G,8 |[M:3/4] z6 | z6 | z6 |[M:4/4] z2 F,2 G,2 A,2 | B,4 A,4 | %23
w: that's time- *||less.||||and lov- ing-|ly cor-|
w: most sure- *||ly.||||up- on my|head He|
w: has willed _|_ _ _ _|it.||||when my life's|breath has|
w: con- fuse _|_ _ _ _|me,||||that I may|praise your|
 G,8- | G,4"^()" D,4 | z8 | z2 D,2 F,2 G,2 | F,2 B,2 B,2 A,2 | B,4 z2 B,2 | A,2 G,2 C4 | %30
w: rects|_ us.||But trust in|Him and rest in|Him, He|nev- er will|
w: num-|* bers.||He guards and|keeps and nev- er|sleeps. His|watch- ful eye|
w: fal-|* tered.||O gra- cious|Lord, sin, hell, and|death for|me You have|
w: name,|_ then.||Who asks, to|him it shall be|giv'n. In|joy I say|
 B,2 (A,4 G,2- | G,2 F,E, F,4) | G,8 |] %33
w: neg- lect _|_ _ _ _|us.|
w: ne'er slum- *||bers.|
w: now con- *||quered.|
w: now: A- *||men.|

